Origami/24x24/apps/babe.svg

<svg width="24" height="24" version="1" xmlns="http://www.w3.org/2000/svg">
 <path d="m8 5.5c-0.851727 0.001629-1.6626229 0.365183-2.2304688 1h-0.7695312c-1.6567856 1.657e-4 -2.9998343 1.3432144-3 3v5c1.657e-4 1.656786 1.3432144 2.999834 3 3h0.7675781c0.5683002 0.635323 1.3800139 0.998925 2.2324219 1h0.1757812c0.4233423 1.197128 1.5544432 1.998129 2.8242188 2h2c1.270493-1e-3 2.40259-0.802197 2.826172-2h0.173828c0.851727-0.0016 1.662623-0.365183 2.230469-1h0.769531c1.656786-1.66e-4 2.999834-1.343214 3-3v-5c-1.66e-4 -1.6567856-1.343214-2.9998343-3-3h-0.767578c-0.5683-0.6353231-1.380014-0.9989254-2.232422-1h-2c-0.738407 0.0010305-1.450502 0.2743247-2 0.7675781-0.549498-0.4932534-1.261593-0.7665476-2-0.7675781z" style="opacity:.2"/>
 <path d="m8 5c-0.851727 0.001629-1.6626229 0.365183-2.2304688 1h-0.7695312c-1.6567856 1.657e-4 -2.9998343 1.3432144-3 3v5c1.657e-4 1.656786 1.3432144 2.999834 3 3h0.7675781c0.5683002 0.635323 1.3800139 0.998925 2.2324219 1h0.1757812c0.4233423 1.197128 1.5544432 1.998129 2.8242188 2h2c1.270493-1e-3 2.40259-0.802197 2.826172-2h0.173828c0.851727-0.0016 1.662623-0.365183 2.230469-1h0.769531c1.656786-1.66e-4 2.999834-1.343214 3-3v-5c-1.66e-4 -1.6567856-1.343214-2.9998343-3-3h-0.767578c-0.5683-0.6353231-1.380014-0.9989254-2.232422-1h-2c-0.738407 0.0010305-1.450502 0.2743247-2 0.7675781-0.549498-0.4932534-1.261593-0.7665476-2-0.7675781z" style="fill:#f85b79"/>
 <g transform="translate(0 .5)" style="opacity:.2">
  <path d="m5 9v1h2v-1h-2z"/>
  <path d="m5 11v1h2v-1h-2z"/>
  <path d="m5 13v1h2v-1h-2z"/>
  <path d="m8 8v1h2v-1h-2z"/>
  <path d="m8 10v1h2v-1h-2z"/>
  <path d="m8 12v1h2v-1h-2z"/>
  <path d="m8 14v1h2v-1h-2z"/>
  <path d="m11 10v1h2v-1h-2z"/>
  <path d="m11 12v1h2v-1h-2z"/>
  <path d="m11 14v1h2v-1h-2z"/>
  <path d="m11 16v1h2v-1h-2z"/>
  <path d="m19 9v1h-2v-1h2z"/>
  <path d="m19 11v1h-2v-1h2z"/>
  <path d="m19 13v1h-2v-1h2z"/>
  <path d="m16 8v1h-2v-1h2z"/>
  <path d="m16 10v1h-2v-1h2z"/>
  <path d="m16 12v1h-2v-1h2z"/>
  <path d="m16 14v1h-2v-1h2z"/>
 </g>
 <path d="m8 8v1h2v-1h-2zm6 0v1h2v-1h-2zm-9 1v1h2v-1h-2zm12 0v1h2v-1h-2zm-9 1v1h2v-1h-2zm3 0v1h2v-1h-2zm3 0v1h2v-1h-2zm-9 1v1h2v-1h-2zm12 0v1h2v-1h-2zm-9 1v1h2v-1h-2zm3 0v1h2v-1h-2zm3 0v1h2v-1h-2zm-9 1v1h2v-1h-2zm12 0v1h2v-1h-2zm-9 1v1h2v-1h-2zm3 0v1h2v-1h-2zm3 0v1h2v-1h-2zm-3 2v1h2v-1h-2z" style="fill:#ffffff"/>
 <path d="m8 5c-0.851727 0.001629-1.6626228 0.365183-2.2304688 1h-0.7695312c-1.6567856 1.657e-4 -2.9998343 1.3432144-3 3v0.5c1.657e-4 -1.6567856 1.3432144-2.9998343 3-3h0.7695312c0.567846-0.634817 1.3787418-0.998371 2.2304688-1h2c0.738407 0.0010305 1.450502 0.2743247 2 0.7675781 0.549498-0.4932534 1.261593-0.7665476 2-0.7675781h2c0.852408 0.0010746 1.664122 0.3646769 2.232422 1h0.767578c1.656786 1.657e-4 2.999834 1.3432144 3 3v-0.5c-1.66e-4 -1.6567856-1.343214-2.9998343-3-3h-0.767578c-0.5683-0.6353231-1.380014-0.9989254-2.232422-1h-2c-0.738407 0.0010305-1.450502 0.2743247-2 0.7675781-0.549498-0.4932534-1.261593-0.7665476-2-0.7675781h-2z" style="fill:#ffffff;opacity:.2"/>
</svg>

<svg xmlns="http://www.w3.org/2000/svg" width="24" height="24" version="1">
 <path style="opacity:0.2" d="M 8,5.5 C 7.148273,5.501629 6.3373771,5.865183 5.7695312,6.5 H 5 c -1.6567856,1.657e-4 -2.9998343,1.3432144 -3,3 v 5 c 1.657e-4,1.656786 1.3432144,2.999834 3,3 H 5.7675781 C 6.3358783,18.135323 7.147592,18.498925 8,18.5 H 8.1757812 C 8.5991235,19.697128 9.7302244,20.498129 11,20.5 h 2 c 1.270493,-0.001 2.40259,-0.802197 2.826172,-2 H 16 c 0.851727,-0.0016 1.662623,-0.365183 2.230469,-1 H 19 c 1.656786,-1.66e-4 2.999834,-1.343214 3,-3 v -5 C 21.999834,7.8432144 20.656786,6.5001657 19,6.5 H 18.232422 C 17.664122,5.8646769 16.852408,5.5010746 16,5.5 H 14 C 13.261593,5.5010305 12.549498,5.7743247 12,6.2675781 11.450502,5.7743247 10.738407,5.5010305 10,5.5 Z"/>
 <path style="fill:#f85b79" d="M 8,5 C 7.148273,5.001629 6.3373771,5.365183 5.7695312,6 H 5 C 3.3432144,6.0001657 2.0001657,7.3432144 2,9 v 5 c 1.657e-4,1.656786 1.3432144,2.999834 3,3 H 5.7675781 C 6.3358783,17.635323 7.147592,17.998925 8,18 H 8.1757812 C 8.5991235,19.197128 9.7302244,19.998129 11,20 h 2 c 1.270493,-0.001 2.40259,-0.802197 2.826172,-2 H 16 c 0.851727,-0.0016 1.662623,-0.365183 2.230469,-1 H 19 c 1.656786,-1.66e-4 2.999834,-1.343214 3,-3 V 9 C 21.999834,7.3432144 20.656786,6.0001657 19,6 H 18.232422 C 17.664122,5.3646769 16.852408,5.0010746 16,5 H 14 C 13.261593,5.0010305 12.549498,5.2743247 12,5.7675781 11.450502,5.2743247 10.738407,5.0010305 10,5 Z"/>
 <g style="opacity:0.2" transform="translate(0,0.5)">
  <path d="m 5,9 c 0,0.3333373 0,0.6666627 0,1 0.666667,0 1.3333333,0 2,0 C 7,9.6666627 7,9.3333373 7,9 6.3333333,9 5.666667,9 5,9 Z"/>
  <path d="m 5,11 c 0,0.333337 0,0.666663 0,1 0.666667,0 1.3333333,0 2,0 0,-0.333337 0,-0.666663 0,-1 -0.6666667,0 -1.333333,0 -2,0 z"/>
  <path d="m 5,13 c 0,0.333337 0,0.666663 0,1 0.666667,0 1.3333333,0 2,0 0,-0.333337 0,-0.666663 0,-1 -0.6666667,0 -1.333333,0 -2,0 z"/>
  <path d="M 8,8 C 8,8.3333373 8,8.6666627 8,9 8.666667,9 9.3333335,9 10,9 10,8.6666627 10,8.3333373 10,8 9.3333335,8 8.666667,8 8,8 Z"/>
  <path d="m 8,10 c 0,0.333337 0,0.666663 0,1 0.666667,0 1.3333335,0 2,0 0,-0.333337 0,-0.666663 0,-1 -0.6666665,0 -1.333333,0 -2,0 z"/>
  <path d="m 8,12 c 0,0.333337 0,0.666663 0,1 0.666667,0 1.3333335,0 2,0 0,-0.333337 0,-0.666663 0,-1 -0.6666665,0 -1.333333,0 -2,0 z"/>
  <path d="m 8,14 c 0,0.333337 0,0.666663 0,1 0.666667,0 1.3333335,0 2,0 0,-0.333337 0,-0.666663 0,-1 -0.6666665,0 -1.333333,0 -2,0 z"/>
  <path d="m 11,10 c 0,0.333337 0,0.666663 0,1 0.666667,0 1.333334,0 2,0 0,-0.333337 0,-0.666663 0,-1 -0.666666,0 -1.333333,0 -2,0 z"/>
  <path d="m 11,12 c 0,0.333337 0,0.666663 0,1 0.666667,0 1.333334,0 2,0 0,-0.333337 0,-0.666663 0,-1 -0.666666,0 -1.333333,0 -2,0 z"/>
  <path d="m 11,14 c 0,0.333337 0,0.666663 0,1 0.666667,0 1.333334,0 2,0 0,-0.333337 0,-0.666663 0,-1 -0.666666,0 -1.333333,0 -2,0 z"/>
  <path d="m 11,16 c 0,0.333337 0,0.666663 0,1 0.666667,0 1.333334,0 2,0 0,-0.333337 0,-0.666663 0,-1 -0.666666,0 -1.333333,0 -2,0 z"/>
  <path d="m 19,9 c 0,0.3333373 0,0.6666627 0,1 -0.666667,0 -1.333333,0 -2,0 0,-0.3333373 0,-0.6666627 0,-1 0.666667,0 1.333333,0 2,0 z"/>
  <path d="m 19,11 c 0,0.333337 0,0.666663 0,1 -0.666667,0 -1.333333,0 -2,0 0,-0.333337 0,-0.666663 0,-1 0.666667,0 1.333333,0 2,0 z"/>
  <path d="m 19,13 c 0,0.333337 0,0.666663 0,1 -0.666667,0 -1.333333,0 -2,0 0,-0.333337 0,-0.666663 0,-1 0.666667,0 1.333333,0 2,0 z"/>
  <path d="m 16,8 c 0,0.3333373 0,0.6666627 0,1 -0.666667,0 -1.333333,0 -2,0 0,-0.3333373 0,-0.6666627 0,-1 0.666667,0 1.333333,0 2,0 z"/>
  <path d="m 16,10 c 0,0.333337 0,0.666663 0,1 -0.666667,0 -1.333333,0 -2,0 0,-0.333337 0,-0.666663 0,-1 0.666667,0 1.333333,0 2,0 z"/>
  <path d="m 16,12 c 0,0.333337 0,0.666663 0,1 -0.666667,0 -1.333333,0 -2,0 0,-0.333337 0,-0.666663 0,-1 0.666667,0 1.333333,0 2,0 z"/>
  <path d="m 16,14 c 0,0.333337 0,0.666663 0,1 -0.666667,0 -1.333333,0 -2,0 0,-0.333337 0,-0.666663 0,-1 0.666667,0 1.333333,0 2,0 z"/>
 </g>
 <path style="fill:#ffffff" d="M 8 8 L 8 9 L 10 9 L 10 8 L 8 8 z M 14 8 L 14 9 L 16 9 L 16 8 L 14 8 z M 5 9 L 5 10 L 7 10 L 7 9 L 5 9 z M 17 9 L 17 10 L 19 10 L 19 9 L 17 9 z M 8 10 L 8 11 L 10 11 L 10 10 L 8 10 z M 11 10 L 11 11 L 13 11 L 13 10 L 11 10 z M 14 10 L 14 11 L 16 11 L 16 10 L 14 10 z M 5 11 L 5 12 L 7 12 L 7 11 L 5 11 z M 17 11 L 17 12 L 19 12 L 19 11 L 17 11 z M 8 12 L 8 13 L 10 13 L 10 12 L 8 12 z M 11 12 L 11 13 L 13 13 L 13 12 L 11 12 z M 14 12 L 14 13 L 16 13 L 16 12 L 14 12 z M 5 13 L 5 14 L 7 14 L 7 13 L 5 13 z M 17 13 L 17 14 L 19 14 L 19 13 L 17 13 z M 8 14 L 8 15 L 10 15 L 10 14 L 8 14 z M 11 14 L 11 15 L 13 15 L 13 14 L 11 14 z M 14 14 L 14 15 L 16 15 L 16 14 L 14 14 z M 11 16 L 11 17 L 13 17 L 13 16 L 11 16 z"/>
 <path style="opacity:0.2;fill:#ffffff" d="M 8 5 C 7.148273 5.001629 6.3373772 5.365183 5.7695312 6 L 5 6 C 3.3432144 6.0001657 2.0001657 7.3432144 2 9 L 2 9.5 C 2.0001657 7.8432144 3.3432144 6.5001657 5 6.5 L 5.7695312 6.5 C 6.3373772 5.865183 7.148273 5.501629 8 5.5 L 10 5.5 C 10.738407 5.5010305 11.450502 5.7743247 12 6.2675781 C 12.549498 5.7743247 13.261593 5.5010305 14 5.5 L 16 5.5 C 16.852408 5.5010746 17.664122 5.8646769 18.232422 6.5 L 19 6.5 C 20.656786 6.5001657 21.999834 7.8432144 22 9.5 L 22 9 C 21.999834 7.3432144 20.656786 6.0001657 19 6 L 18.232422 6 C 17.664122 5.3646769 16.852408 5.0010746 16 5 L 14 5 C 13.261593 5.0010305 12.549498 5.2743247 12 5.7675781 C 11.450502 5.2743247 10.738407 5.0010305 10 5 L 8 5 z"/>
</svg>
